src/images/svg/testimonials/arrow-right.svg

<svg width="32" height="32" viewBox="0 0 32 32" fill="none" xmlns="http://www.w3.org/2000/svg"><rect width="32" height="32" rx="16" fill="white"/><g clip-path="url(#clip0)"><path d="M15.2929 8.29289C14.9024 8.68342 14.9024 9.31658 15.2929 9.70711L20.586 14.999L9 15C8.44772 15 8 15.4477 8 16C8 16.5523 8.44772 17 9 17L20.586 16.999L15.2929 22.2929C14.9024 22.6834 14.9024 23.3166 15.2929 23.7071C15.6834 24.0976 16.3166 24.0976 16.7071 23.7071L23.7071 16.7071L23.7803 16.6254C23.7826 16.6226 23.7849 16.6197 23.7872 16.6167L23.7071 16.7071C23.7425 16.6717 23.7747 16.6343 23.8037 16.5953C23.8215 16.5711 23.8383 16.5463 23.8539 16.5207C23.8614 16.5086 23.8685 16.4964 23.8753 16.4841C23.8862 16.4643 23.8966 16.4439 23.9063 16.4231C23.9143 16.4061 23.9218 16.3888 23.9288 16.3713C23.9367 16.3516 23.9439 16.3318 23.9505 16.3117C23.9553 16.2969 23.9599 16.2815 23.9642 16.266C23.9702 16.2444 23.9754 16.2227 23.9798 16.2008C23.9833 16.1834 23.9864 16.1659 23.989 16.1485C23.9919 16.1295 23.9942 16.1098 23.996 16.09C23.9981 16.066 23.9994 16.0427 23.9998 16.0194C23.9999 16.0135 24 16.0067 24 16L23.9998 15.9806C23.9994 15.9573 23.9981 15.934 23.996 15.9107L24 16C24 15.9494 23.9962 15.8996 23.989 15.851C23.9864 15.8341 23.9833 15.8166 23.9798 15.7993C23.9754 15.7773 23.9702 15.7556 23.9643 15.7342C23.9599 15.7185 23.9553 15.7031 23.9503 15.6879C23.9439 15.6682 23.9367 15.6484 23.9289 15.6289C23.9218 15.6112 23.9143 15.5939 23.9063 15.5768C23.8966 15.5561 23.8862 15.5357 23.8751 15.5157C23.8685 15.5036 23.8614 15.4914 23.854 15.4793C23.8383 15.4537 23.8215 15.4289 23.8037 15.4048C23.7982 15.3974 23.7927 15.3902 23.7871 15.383C23.7623 15.3515 23.7356 15.3214 23.7071 15.2929L16.7071 8.29289C16.3166 7.90237 15.6834 7.90237 15.2929 8.29289Z" fill="#999999"/></g><defs><clipPath id="clip0"><rect width="16" height="16" fill="white" transform="translate(8 8)"/></clipPath></defs></svg>

<svg width="32" height="32" fill="none" xmlns="http://www.w3.org/2000/svg"><rect width="32" height="32" rx="16" fill="#fff"/><g clip-path="url(#a)"><path d="M15.293 8.293a1 1 0 0 0 0 1.414L20.586 15 9 15a1 1 0 1 0 0 2l11.586-.001-5.293 5.294a1 1 0 0 0 1.414 1.414l7-7 .073-.082a.33.33 0 0 0 .007-.008l-.08.09a1.012 1.012 0 0 0 .282-.559A.975.975 0 0 0 24 16v-.02a.963.963 0 0 0-.004-.07L24 16a1.017 1.017 0 0 0-.146-.52 1.045 1.045 0 0 0-.147-.187l-7-7a1 1 0 0 0-1.414 0Z" fill="#999"/></g><defs><clipPath id="a"><path fill="#fff" transform="translate(8 8)" d="M0 0h16v16H0z"/></clipPath></defs></svg>
